packages/katcn/src/icons/svg/arrow12.svg

<svg width="24" height="25" viewBox="0 0 24 25" fill="none" xmlns="http://www.w3.org/2000/svg">
<path d="M19.1 2.29599H15.2C14.2 2.29599 13.3 2.89599 12.9 3.89599C12.5 4.79599 12.7 5.89599 13.4 6.59599L14.9 8.09599L13 9.99599C12.6 10.396 12.6 10.996 13 11.396C13.2 11.596 13.5 11.696 13.7 11.696C13.9 11.696 14.2 11.596 14.4 11.396L17 8.79599C17.2 8.59599 17.3 8.29599 17.3 8.09599C17.3 7.79599 17.2 7.59599 17 7.39599L14.8 5.19599C14.6 4.99599 14.6 4.69599 14.7 4.59599C14.8 4.49599 14.8 4.29599 15.2 4.29599H19.1C19.6 4.29599 20 4.69599 20 5.19599V9.09599C20 9.39599 19.8 9.49599 19.7 9.59599C19.6 9.59599 19.4 9.69599 19.1 9.49599C18.7 9.09599 18.1 9.09599 17.7 9.49599C17.3 9.89599 17.3 10.496 17.7 10.896C18.2 11.396 18.8 11.596 19.5 11.596C19.8 11.596 20.2 11.496 20.5 11.396C21.4 11.096 22 10.196 22 9.09599V5.19599C22 3.59599 20.7 2.29599 19.1 2.29599Z" fill="black"/>
<path d="M8.5 7.29599C8.1 6.99599 7.4 6.99599 7 7.29599L4.9 9.49599C4.7 9.69599 4.4 9.69599 4.3 9.59599C4.2 9.59599 4 9.49599 4 9.09599V5.19599C4 4.69599 4.4 4.29599 4.9 4.29599H8.8C9.1 4.29599 9.2 4.49599 9.3 4.59599C9.3 4.69599 9.4 4.89599 9.2 5.19599C8.8 5.59599 8.8 6.19599 9.2 6.59599C9.6 6.99599 10.2 6.99599 10.6 6.59599C11.3 5.89599 11.5 4.79599 11.1 3.89599C10.8 2.89599 9.9 2.29599 8.8 2.29599H4.9C3.3 2.29599 2 3.59599 2 5.19599V9.09599C2 10.096 2.6 10.996 3.6 11.396C3.9 11.496 4.2 11.596 4.6 11.596C5.3 11.596 5.9 11.296 6.4 10.896L7.9 9.39599L9.8 11.296C10 11.496 10.3 11.596 10.5 11.596C10.7 11.596 11 11.496 11.2 11.296C11.6 10.896 11.6 10.296 11.2 9.89599L8.5 7.29599Z" fill="black"/>
<path d="M20.4 13.096C19.5 12.696 18.4 12.896 17.7 13.596L16.2 15.096L14.3 13.196C13.9 12.796 13.3 12.796 12.9 13.196C12.5 13.596 12.5 14.196 12.9 14.596L15.5 17.196C15.7 17.396 16 17.496 16.2 17.496C16.4 17.496 16.7 17.396 16.9 17.196L19.1 14.996C19.3 14.796 19.6 14.796 19.7 14.896C19.8 14.896 20 15.096 20 15.396V19.296C20 19.796 19.6 20.196 19.1 20.196H15.2C14.9 20.196 14.8 19.996 14.7 19.896C14.6 19.796 14.6 19.596 14.8 19.296C15.2 18.896 15.2 18.296 14.8 17.896C14.4 17.496 13.8 17.496 13.4 17.896C12.7 18.596 12.5 19.696 12.9 20.596C13.3 21.496 14.2 22.196 15.2 22.196H19.1C20.7 22.196 22 20.896 22 19.296V15.396C22 14.396 21.4 13.496 20.4 13.096Z" fill="black"/>
<path d="M11.1 13.196C10.7 12.796 10.1 12.796 9.7 13.196L7 15.796C6.6 16.196 6.6 16.796 7 17.196L9.2 19.396C9.4 19.596 9.4 19.896 9.3 19.996C9.2 20.096 9.2 20.296 8.8 20.296H4.9C4.4 20.296 4 19.896 4 19.396V15.496C4 15.196 4.2 15.096 4.3 14.996C4.4 14.996 4.6 14.896 4.9 15.096C5.3 15.496 5.9 15.496 6.3 15.096C6.7 14.696 6.7 14.096 6.3 13.696C5.6 12.996 4.5 12.796 3.6 13.196C2.6 13.496 2 14.396 2 15.496V19.396C2 20.996 3.3 22.296 4.9 22.296H8.8C9.8 22.296 10.7 21.696 11.1 20.696C11.5 19.796 11.3 18.696 10.6 17.996L9.1 16.496L11 14.596C11.5 14.296 11.5 13.596 11.1 13.196Z" fill="black"/>
</svg>

<svg xmlns="http://www.w3.org/2000/svg" fill="none" viewBox="0 0 24 25"><path fill="#000" d="M19.1 2.296h-3.9c-1 0-1.9.6-2.3 1.6-.4.9-.2 2 .5 2.7l1.5 1.5-1.9 1.9c-.4.4-.4 1 0 1.4.2.2.5.3.7.3s.5-.1.7-.3l2.6-2.6c.2-.2.3-.5.3-.7 0-.3-.1-.5-.3-.7l-2.2-2.2c-.2-.2-.2-.5-.1-.6s.1-.3.5-.3h3.9c.5 0 .9.4.9.9v3.9c0 .3-.2.4-.3.5-.1 0-.3.1-.6-.1-.4-.4-1-.4-1.4 0s-.4 1 0 1.4c.5.5 1.1.7 1.8.7.3 0 .7-.1 1-.2.9-.3 1.5-1.2 1.5-2.3v-3.9c0-1.6-1.3-2.9-2.9-2.9m-10.6 5c-.4-.3-1.1-.3-1.5 0l-2.1 2.2c-.2.2-.5.2-.6.1-.1 0-.3-.1-.3-.5v-3.9c0-.5.4-.9.9-.9h3.9c.3 0 .4.2.5.3 0 .1.1.3-.1.6-.4.4-.4 1 0 1.4s1 .4 1.4 0c.7-.7.9-1.8.5-2.7-.3-1-1.2-1.6-2.3-1.6H4.9c-1.6 0-2.9 1.3-2.9 2.9v3.9c0 1 .6 1.9 1.6 2.3.3.1.6.2 1 .2.7 0 1.3-.3 1.8-.7l1.5-1.5 1.9 1.9c.2.2.5.3.7.3s.5-.1.7-.3c.4-.4.4-1 0-1.4zm11.9 5.8c-.9-.4-2-.2-2.7.5l-1.5 1.5-1.9-1.9c-.4-.4-1-.4-1.4 0s-.4 1 0 1.4l2.6 2.6c.2.2.5.3.7.3s.5-.1.7-.3l2.2-2.2c.2-.2.5-.2.6-.1.1 0 .3.2.3.5v3.9c0 .5-.4.9-.9.9h-3.9c-.3 0-.4-.2-.5-.3s-.1-.3.1-.6c.4-.4.4-1 0-1.4s-1-.4-1.4 0c-.7.7-.9 1.8-.5 2.7s1.3 1.6 2.3 1.6h3.9c1.6 0 2.9-1.3 2.9-2.9v-3.9c0-1-.6-1.9-1.6-2.3m-9.3.1c-.4-.4-1-.4-1.4 0l-2.7 2.6c-.4.4-.4 1 0 1.4l2.2 2.2c.2.2.2.5.1.6s-.1.3-.5.3H4.9c-.5 0-.9-.4-.9-.9v-3.9c0-.3.2-.4.3-.5.1 0 .3-.1.6.1.4.4 1 .4 1.4 0s.4-1 0-1.4c-.7-.7-1.8-.9-2.7-.5-1 .3-1.6 1.2-1.6 2.3v3.9c0 1.6 1.3 2.9 2.9 2.9h3.9c1 0 1.9-.6 2.3-1.6.4-.9.2-2-.5-2.7l-1.5-1.5 1.9-1.9c.5-.3.5-1 .1-1.4"/></svg>
